X: 193
T:Old Mother Flanagan
R:Hornpipe
Z:added by elizabeth.scarlett@rogers.com
M:C|
L:1/8
K:A
(3efg|agae fecd|efec BAFG|ABAF EFAB|cAcd e2 (3efg|
agae fecd|efec BAFG|ABAF EF (3def|ecBc A2:|
|:F2|ABAF EFAB|cBcd cBAF|ABAF EFAB|cA (3Bcd e2 (3ABc|
d2fd c2ec|BABc BAFG|ABAF E2ef|ecBc A2:|
% C:\aaa\ABCcollections\gavin.abc
